modules/stroke-7/icons/display2.svg

<?xml version="1.0" encoding="utf-8"?>
<!-- Generated by IcoMoon.io -->
<!DOCTYPE svg PUBLIC "-//W3C//DTD SVG 1.1//EN" "http://www.w3.org/Graphics/SVG/1.1/DTD/svg11.dtd">
<svg version="1.1" xmlns="http://www.w3.org/2000/svg" xmlns:xlink="http://www.w3.org/1999/xlink" width="32" height="32" viewBox="0 0 32 32">
<g id="icomoon-ignore">
</g>
<path d="M30.394 4.005h-28.789v1.066h2.132v19.192h11.729v2.666h-8.53v1.066h18.126v-1.066h-8.53v-2.666h11.729v-19.192h2.133v-1.066zM27.196 23.197h-22.391v-18.126h22.391v18.126z" fill="#000000"></path>
<path d="M14.401 8.27h-6.397v6.398h6.398v-6.398zM13.334 13.601h-4.265v-4.265h4.265v4.265z" fill="#000000"></path>
<path d="M16.533 13.601h7.464v1.066h-7.464v-1.066z" fill="#000000"></path>
<path d="M16.533 8.27h7.464v1.066h-7.464v-1.066z" fill="#000000"></path>
<path d="M16.533 10.935h7.464v1.066h-7.464v-1.066z" fill="#000000"></path>
<path d="M8.003 16.8h15.994v1.066h-15.994v-1.066z" fill="#000000"></path>
<path d="M8.003 19.998h15.994v1.066h-15.994v-1.066z" fill="#000000"></path>
</svg>

<svg xmlns="http://www.w3.org/2000/svg" width="32" height="32"><path d="M30.394 4.005H1.605v1.066h2.132v19.192h11.729v2.666h-8.53v1.066h18.126v-1.066h-8.53v-2.666h11.729V5.071h2.133V4.005zm-3.198 19.192H4.805V5.071h22.391v18.126z"/><path d="M14.401 8.27H8.004v6.398h6.398V8.27zm-1.067 5.331H9.069V9.336h4.265v4.265zM16.533 13.601h7.464v1.066h-7.464v-1.066zM16.533 8.27h7.464v1.066h-7.464V8.27zM16.533 10.935h7.464v1.066h-7.464v-1.066zM8.003 16.8h15.994v1.066H8.003V16.8zM8.003 19.998h15.994v1.066H8.003v-1.066z"/></svg>
